X:1
T: Fasten the leg in Her
C:
R:Jig
Q:180
K:G
M:6/8
L:1/16
dc|B4B2 B2A2B2|G2B2d2 g2d2B2|A4A2 A2G2A2|B2e2e2 d2B2A2|B4B2 B2A2B2|G2B2d2 g2f2g2|e2f2g2 f2a2g2|f2d2d2 d4dc|
B4B2 B2A2B2|G2B2d2 g2d2B2|A4A2 A2G2A2|B2e2e2 d2B2A2|B4B2 B2A2B2|G2B2d2 g2f2g2|e2f2g2 f2a2g2|f2d2d2 d4ef|
g2a2g2 f2g2f2|e2d2e2 f2d2B2|A2B2A2 A2G2A2|B2e2e2 d2B2A2|g2a2g2 f2g2f2|e2d2e2 f2d2B2|d2e2f2 e2a2g2|f2d2d2 d4ef|
g2a2g2 f2g2f2|e2d2e2 f2d2B2|A2B2A2 A2G2A2|B2e2e2 d2B2A2|g2a2g2 f2g2f2|e2d2e2 f2d2B2|d2e2f2 e2a2g2|f2d2d2 d4||
